X: 096
T: Mount Sion
B: 204 Favourite Country Dances
N: Published by Straight & Skillern, London ca.1775
F: http://imslp.org/wiki/204_Favourite_Country_Dances_(Various) p.48 #96
Z: 2014 John Chambers <jc:trillian.mit.edu>
M: 6/8
L: 1/8
K: A
% - - - - - - - - - - - - - - - - - - - - - - - - -
|: aec aec | A>Bc A>Bc | aec aec | dBG A3 :|\
|: TA2E TA2E | Tc2E Tc2E | d>ef Tf>ed | Tc>dB A3 :|
|: .A.B.c .d.e.f | Te>dc B>A=G | F=GF dcB | ABG A3 :|\
|: Te3 Tf3 | edc BA=G | F3 d2B | ABG A3 :|
% - - - - - - - - - - - - - - - - - - - - - - - - -
%%begintext align
%% 1st Cu. set to the 2d Wo. & not turn .| D.o to
%% the 2d Man :| lead down 1 Cu. .|. up again &
%% cast off :|. right hands across half round
%% with the 3d Cu. .|: left hands D.o return :|:
%% right & left at top .:|:.
%%endtext

%%sep 1 1 500
%%sep 1 1 500
